X: 33824
T: Reaper, The
R: jig
M: 6/8
K: Dmajor
|:DFA AFD|GBB B2c|Ace ecA|dfa a2g||fef dAF|
DGB e2d|1 cBc ABc|dfe dAF:|2 (3cde c ABc|dfe dfg||
|:afd AFD|GBe e2d|cBc ABc|dfb afg||afd AFD|
GBe e2d|1 cBc ABc|dfe dfg:|2 (3cde c ABc|dfe d3||

